!!!COM1: Joplin, Scott
!!!CDT1: 1868/11/24/-1917/04/01/
!!!COM2: Hayden, Scott
!!!CDT2: 1882///-1915///
!!!OTL: Sunflower Slow Drag
!!!ODT: 1901///
**kern	**kern	**dynam
*staff2	*staff1	*staff1/2
*Ipiano	*Ipiano	*Ipiano
*>[I,A,A1,A,A2,B,B1,B,B2,C,D,D1,D,D2,E,E1,E,E2]	*>[I,A,A1,A,A2,B,B1,B,B2,C,D,D1,D,D2,E,E1,E,E2]	*>[I,A,A1,A,A2,B,B1,B,B2,C,D,D1,D,D2,E,E1,E,E2]
*>norep[I,A,A2,B,B2,C,D,D2,E,E2]	*>norep[I,A,A2,B,B2,C,D,D2,E,E2]	*>norep[I,A,A2,B,B2,C,D,D2,E,E2]
*>I	*>I	*>I
*clefF4	*clefG2	*clefG2
*k[b-e-]	*k[b-e-]	*k[b-e-]
*M2/4	*M2/4	*M2/4
*MM90	*MM90	*MM90
=1-	=1-	=1-
16dLK	16ddLK	.
8f	8ff	.
16B-Jk	16b-Jk	.
4d	4dd	.
=2	=2	=2
16GLL	16gLL	.
16A	16a	.
16B-	16b-	.
[16DJJ	[16dJJ	.
4D]	4d]	.
=3	=3	=3
16E-LL	16e-LL	.
16F	16f	.
16G	16g	.
16E-JJ	16e-JJ	.
16DLK	16dLK	.
8C	8c	.
16FJk	16fJk	.
=4	=4	=4
8FF	8F	.
8FL FF	8ffL f	.
8E- EE-	8gg g	.
8CJ CC	8aaJ a	.
=5!|:	=5!|:	=5!|:
*>A	*>A	*>A
8BB-L BBB-	16bb-LL b-	.
.	16dd	.
8dJ B- F	16ff	.
.	[16aaJJ [a	.
8FFL	16aa]LK a]	.
.	8gg g	.
8dJ B- F	.	.
.	16ddJk b-	.
=6	=6	=6
8BB-L	16ffLL f	.
.	16dd b-	.
8dJ B- F	16gg g	.
.	[16ffJJ [f	.
8DL	16ff]LL f]	.
.	16dd	.
8dJ B- F	16b-	.
.	16fJJ	.
=7	=7	=7
8e-L E-	16ggLL	.
.	(16g	.
8B-J BB-	16g#	.
.	(16aJJ)	.
8cL C	16b-LL)	.
.	16ggn	.
8c#J C	16gn	.
.	16eenJJ	.
=8	=8	=8
8dL D	16ffLL	.
.	16f	.
8FJ FF	16dd	.
.	[16ggJJ [g	.
8E-L EE-	16gg]LK g]	.
.	8aa a	.
8CJ CC	.	.
.	16ffJk ee-	.
=9	=9	=9
8BB-L BBB-	16bb-LL b-	.
.	16dd	.
8dJ B- F	16ff	.
.	[16aaJJ [a	.
8FFL	16aa]LK a]	.
.	8gg g	.
8dJ B- F	.	.
.	16ddJk b-	.
=10	=10	=10
8BB-L	16ffLL f	.
.	16dd b-	.
8dJ B- F	16gg g	.
.	[16ffJJ [f	.
8DL	16ff]LL f]	.
.	16dd	.
8D-J	16b-	.
.	16fJJ	.
=11	=11	=11
8CL	16ccLL	.
.	16bn	.
8fJ c A	16cc	.
.	16ddJJ	.
8CL	16ccLL	.
.	16b-	.
8enJ c B- G	16a	.
.	16gJJ	.
=12	=12	=12
8cL A F	16fLL	.
.	16cc	.
8FJ FF	16ee-	.
.	[16ggJJ [g	.
8E-L EE-	16gg]LK g]	.
.	8aa a	.
8CJ CC	.	.
.	16ffJk ee-	.
=13	=13	=13
8BB-L BBB-	16bb-LL b-	.
.	16dd	.
8dJ B- F	16ff	.
.	[16aaJJ [a	.
8FFL	16aa]LK a]	.
.	8gg g	.
8dJ B- F	.	.
.	16ddJk b-	.
=14	=14	=14
8BB-L	16ffLL f	.
.	16dd b-	.
8dJ B- F	16gg g	.
.	[16ffJJ [f	.
8DL	16ff]LL f]	.
.	16dd	.
8dJ B- F	16b-	.
.	16fJJ	.
=15	=15	=15
8e-L E-	16ggLL	.
.	(16g	.
8B-J BB-	16g#	.
.	16aJJ	.
8cL C	16b-LL)	.
.	16ggn	.
8c#J C	16gn	.
.	16eenJJ	.
=16	=16	=16
8dL D	16ffLL f	.
.	16dd b-	.
8e-J E-	16gg g	.
.	[16aaJJ [a	.
8fL F	16aa]LK a]	.
.	8gg g	.
8e-J E-	.	.
.	16ee-Jk b-	.
=17	=17	=17
8dL D	16ffLL f	.
.	16dd b-	.
8dJ B- F	16gg g	.
.	[16ffJJ [f	.
8GGL	16ff]LL f]	.
.	16dd	.
8fJ d Bn G	16bn	.
.	16gJJ	.
=18	=18	=18
8B-L G C	8ddL en	.
8B-J G C	8ccJ d	.
8AL F	8ddL e-	.
8AJ F	8ccJ e-	.
=19	=19	=19
*>A1	*>A1	*>A1
8B-L BB-	2b- [d	.
16FL FF	.	.
[16GJJ [GG	.	.
16G]LL GG]	.	.
16F FF	.	.
16D DD	.	.
16CJJ CC	.	.
=20	=20	=20
8BB-L BBB-	8b-L d]	.
8FJ FF	8ffJ f	.
8E-L EE-	8ggL g	.
8CJ CC	8aaJ a	.
=21:|!	=21:|!	=21:|!
*>A2	*>A2	*>A2
8B-L BB-	2b- [d	.
16FL FF	.	.
[16GJJ [GG	.	.
16G]LL GG]	.	.
16F FF	.	.
16D DD	.	.
16CJJ CC	.	.
=22	=22	=22
8BB-L BBB-	8b- d]	<
8FJ FF	8r	.
8GL GG	4r	.
8G#J GG#	.	.
=23!|:	=23!|:	=23!|:
*>B	*>B	*>B
8AL AA	8r	.
8e-J c F	8ggL ee- a	.
8FFL	8gg ee- a	f
8e-J c F	8ggJ ee- a	.
=24	=24	=24
8CL	16ffLK ee- a	.
.	8aa ee- a	.
8e-J c F	.	.
.	[16ggJk [ee- [a	.
8FFL	16gg]LL ee-] a]	.
.	16ff	.
8e-J c F	16ee-	.
.	16ccJJ	.
=25	=25	=25
8BB-L	8b-L	.
8dJ B- F	8ggJ dd b-	.
8FFL	8ggL dd b-	.
8dJ B- F	8ggJ dd b-	.
=26	=26	=26
8BB-L	16ffLK dd b-	.
.	8bb- dd b-	.
8dJ B- F	.	.
.	[16ggJk [dd [b-	.
8FFL	16gg]LL dd] b-]	.
.	16dd	.
8dJ B- F	16ff	.
.	16bb-JJ b-	.
=27	=27	=27
8CL	8aaL ee- a	.
8e-J c F	16gg#L ee- g#	.
.	[16aaJJ [ee- [a	.
8FFL	16aa]LK ee-] a]	.
.	8bb- b-	.
8e-J c F	.	.
.	16ffJk	.
=28	=28	=28
8AAL	8cccL ee- cc	.
8e-J A F	16bbnL bn	.
.	[16cccJJ [ee- [cc	.
8FFL	16ccc]LK ee-] cc]	.
.	8ccc# cc#	.
8e-J A F	.	.
.	16ffJk	.
=29	=29	=29
8BB-L	16dddLL dd	.
.	16b-	.
8dJ B- F	16dd	.
.	16ffJJ	.
8c#L B- En	16aaLK cc# a	.
.	8gg cc# g	.
8c#J B- E	.	.
.	[16ffJk [dd [f	.
=30	=30	=30
8dL B- F	2ff] dd] f]	<
8FJ FF	.	.
8GL GG	.	.
8G#J GG#	.	.
=31	=31	=31
8AL AA	8r	.
8e-J c F	8ggL ee- a	.
8FFL	8gg ee- a	f
8e-J c F	8ggJ ee- a	.
=32	=32	=32
8CL	16ffLK ee- a	.
.	8aa ee- a	.
8e-J c F	.	.
.	[16ggJk [ee- [a	.
8FFL	16gg]LL ee-] a]	.
.	16ff	.
8e-J c F	16ee-	.
.	16ccJJ	.
=33	=33	=33
8BB-L	8b-L	.
8dJ B- F	8ggJ dd b-	.
8FFL	8ggL dd b-	.
8dJ B- F	8ggJ dd b-	.
=34	=34	=34
8BB-L	16ggLK dd b-	.
.	8ff dd b-	.
8dJ B- F	.	.
.	[16ffJk [dd [b-	.
8DL	16ff]LL dd] b-]	.
.	16b-	.
8dJ B- A- F	16dd	.
.	16ffJJ	.
=35	=35	=35
8e-L B- G E-	8ggL g	.
8GJ GG	8bb-J b-	.
8FL FF	8aaL a	.
8E-J EE-	8ggJ g	.
=36	=36	=36
8DL DD	16ffLL f	.
.	16dd b-	.
8dJ B- F	16gg g	.
.	[16ffJJ [f	.
8GGL	16ff]LL f]	.
.	16dd	.
8fJ d Bn G	16bn	.
.	16gJJ	.
=37	=37	=37
8B-L G C	8ddL en	.
8B-J G C	8ccJ e	.
8AL F	8ddL e-	.
8AJ F	8ccJ e-	.
=38	=38	=38
*>B1	*>B1	*>B1
8B-L BB-	2b- d	<
8FJ FF	.	.
8GL GG	.	.
8G#J GG#	.	.
=39:|!	=39:|!	=39:|!
*>B2	*>B2	*>B2
8B-L BB-	8b-L d	.
8FJ FF	8ffJ f	.
8E-L EE-	8ggL g	.
8CJ CC	8aaJ a	.
=40	=40	=40
*>C	*>C	*>C
8BB-L BBB-	16bb-LL b-	.
.	16dd	.
8dJ B- F	16ff	.
.	[16aaJJ [a	.
8FFL	16aa]LK a]	.
.	8gg g	.
8dJ B- F	.	.
.	16ddJk b-	.
=41	=41	=41
8BB-L	16ffLL f	.
.	16dd b-	.
8dJ B- F	16gg g	.
.	[16ffJJ [f	.
8DL	16ff]LL f]	.
.	16dd	.
8dJ B- F	16b-	.
.	16fJJ	.
=42	=42	=42
8e-L E-	16ggLL	.
.	(16g	.
8B-J BB-	16g#	.
.	16aJJ	.
8cL C	16b-LL)	.
.	16ggn	.
8c#J C	16gn	.
.	16eenJJ	.
=43	=43	=43
8dL D	16ffLL	.
.	16f	.
8FJ FF	16dd	.
.	[16ggJJ [g	.
8E-L EE-	16gg]LK g]	.
.	8aa a	.
8CJ CC	.	.
.	16ffJk ee-	.
=44	=44	=44
8BB-L BBB-	16bb-LL b-	.
.	16dd	.
8dJ B- F	16ff	.
.	[16aaJJ [a	.
8FFL	16aa]LK a]	.
.	8gg g	.
8dJ B- F	.	.
.	16ddJk b-	.
=45	=45	=45
8BB-L	16ffLL f	.
.	16dd b-	.
8dJ B- F	16gg g	.
.	[16ffJJ [f	.
8DL	16ff]LL f]	.
.	16dd	.
8D-J	16b-	.
.	16fJJ	.
=46	=46	=46
8CL	16ccLL	.
.	16bn	.
8fJ c A	16cc	.
.	16ddJJ	.
8CL	16ccLL	.
.	16b-	.
8enJ c B- G	16a	.
.	16gJJ	.
=47	=47	=47
8cL A F	16fLL	.
.	16cc	.
8FJ FF	16ee-	.
.	[16ggJJ [g	.
8E-L EE-	16gg]LK g]	.
.	8aa a	.
8CJ CC	.	.
.	16ffJk ee-	.
=48	=48	=48
8BB-L BBB-	16bb-LL b-	.
.	16dd	.
8dJ B- F	16ff	.
.	[16aaJJ [a	.
8FFL	16aa]LK a]	.
.	8gg g	.
8dJ B- F	.	.
.	16ddJk b-	.
=49	=49	=49
8BB-L	16ffLL f	.
.	16dd b-	.
8dJ B- F	16gg g	.
.	[16ffJJ [f	.
8DL	16ff]LL f]	.
.	16dd	.
8dJ B- F	16b-	.
.	16fJJ	.
=50	=50	=50
8e-L E-	16ggLL	.
.	(16g	.
8B-J BB-	16g#	.
.	(16aJJ)	.
8cL C	16b-LL)	.
.	16ggn	.
8c#J C	16gn	.
.	16eenJJ	.
=51	=51	=51
8dL D	16ffLL f	.
.	16dd b-	.
8e-J E-	16gg g	.
.	[16aaJJ [a	.
8fL F	16aa]LK a]	.
.	8gg g	.
8e-J E-	.	.
.	16ee-Jk b-	.
=52	=52	=52
8dL D	16ffLL f	.
.	16dd b-	.
8dJ B- F	16gg g	.
.	[16ffJJ [f	.
8FFL	16ff]LL f]	.
.	16dd	.
8fJ d Bn G	16bn	.
.	16gJJ	.
=53	=53	=53
8B-L G C	8ddL en	.
8B-J G C	8ccJ e	.
8AL F	8ddL e-	.
8AJ F	8ccJ e-	.
=54	=54	=54
8B-L BB-	2b- [d	.
16FL FF	.	.
[16GJJ [GG	.	.
16G]LL GG]	.	.
16F FF	.	.
16D DD	.	.
16CJJ CC	.	.
=55	=55	=55
8BB- BBB-	8b- d]	.
8r	8r	.
8BB- BBB-	8bb- ff dd b-	.
8r	8r	.
=56	=56	=56
*k[b-e-a-]	*k[b-e-a-]	*k[b-e-a-]
8BB-L BBB-	16ddLK a- f	.
.	8dd a- f	.
8BBnJ BBBn	.	.
.	16dd-Jk a- f	.
8CL CC	16ccLL a- f	.
.	16cc a- f	.
8C#J CC#	16cc- a- f	.
.	[16b-JJ [a- [f	.
=57	=57	=57
*	*^	*
8DL DD	8b-]L a-] f]	8r	.
8BB-J BBB-	16ffL	8a-	.
.	16b-JJ	.	.
8CnL CCn	16ffLL	8a-	.
.	16b-	.	.
8DJ DD	16ff	8a-	.
.	16b-JJ	.	.
*	*v	*v	*
=58	=58	=58
8E-L EE-	2ee- g	.
16GL GG	.	.
16A-JJ AA-	.	.
16AnLL AAn	.	.
16B- BB-	.	.
16c C	.	.
16dJJ D	.	.
=59	=59	=59
8e-L E-	8ee- g	.
8BB-J BBB-	8r	.
8GGL GGG	4r	.
8GG-J GGG-	.	.
=60!|:	=60!|:	=60!|:
*>D	*>D	*>D
4FF FFF	8ddL an e-	p
.	16ccL a e-	.
.	[16ddJJ [a [e-	.
4AAn AAAn	16dd]LL a] e-]	.
.	16cc	.
.	16a	.
.	16fJJ	.
=61	=61	=61
4BB- BBB-	8ggL dd a-	.
.	16ffL dd a-	.
.	[16ggJJ [dd [a-	.
4D DD	16gg]LL dd] a-]	.
.	16ff	.
.	16dd	.
.	16b-JJ	.
=62	=62	=62
8E-L EE-	16fffLL ff	.
.	16bb- gg	.
8gJ e- B-	16eee- ee-	.
.	[16dddJJ [dd	.
8BB-L	16ddd]LK dd]	.
.	8ccc cc	.
8gJ e- B-	.	.
.	16ggJk ee-	.
=63	=63	=63
8E-L	16bb-LL b-	.
.	16gg ee-	.
8gJ e- B-	16ccc cc	.
.	[16bb-JJ [b-	.
8GGL	16bb-]LL b-]	.
.	16ee-	.
8gJ e- B-	16gg	.
.	16bb-JJ	.
=64	=64	=64
8AA-L	16eee-LL ee-	.
.	16aa-	.
8a-J e- c	16ccc	.
.	[16eee-JJ [ee-	.
8AA-L	16eee-]LK ee-]	.
.	8fff ff	.
8a-J e- c-	.	.
.	16eee-Jk ee-	.
=65	=65	=65
8E-L	16bb-LL b-	.
.	16ee-	.
8gJ e- B-	16gg	.
.	[16bb-JJ [b-	.
8GL GG	16bb-]LK b-]	.
.	8ccc cc	.
8G-J GG-	.	.
.	16bb-Jk b-	.
=66	=66	=66
8FL FF	16ffLL f	.
.	16eee- ee-	.
8dJ B- F	16ddd dd	.
.	[16cccJJ [cc	.
8FL	16ccc]LL cc]	.
.	16ff f	.
8e-J An	16gg g	.
.	16aanJJ an	.
=67	=67	=67
8dL B-	4.bb- b-	.
8BB-J BBB-	.	.
8GGL GGG	.	.
8GG-J GGG-	8r	.
=68	=68	=68
4FF FFF	8ddL an e-	.
.	16ccL a e-	.
.	[16ddJJ [a [e-	.
4AAn AAAn	16dd]LL a] e-]	.
.	16cc	.
.	16a	.
.	16fJJ	.
=69	=69	=69
4BB- BBB-	8ggL dd a-	.
.	16ffL dd a-	.
.	[16ggJJ [dd [a-	.
4D DD	16gg]LL dd] a-]	.
.	16ff	.
.	16dd	.
.	16b-JJ	.
=70	=70	=70
8E-L EE-	16fffLL ff	.
.	16bb- gg	.
8gJ e- B-	16eee- ee-	.
.	[16dddJJ [dd	.
8BB-L	16ddd]LK dd]	.
.	8ccc cc	.
8gJ e- B-	.	.
.	16ggJk ee-	.
=71	=71	=71
8E-L	16bb-LL b-	.
.	16gg ee-	.
8gJ e- B-	16ccc cc	.
.	[16bb-JJ [b-	.
8GL GG	16bb-]LL b-]	.
.	16ee-	.
8gJ e- B-	16gg	.
.	16bb-JJ b-	.
=72	=72	=72
8A-L AA-	4ccc aa- ff cc	.
8a-J f c	.	.
8FL FF	8cccL aa- ff cc	.
16GL GG	8ccc-J aa- ff cc-	.
16A-JJ AA-	.	.
=73	=73	=73
8B-L BB-	16bb-LL gg ee- b-	.
.	16gg ee-	.
8gJ e- B-	16cccn ccn	.
.	[16bb-JJ [b-	.
8CL	16bb-]LL b-]	.
.	16gg	.
8enJ c B-	16een	.
.	16ccJJ	.
=74	=74	=74
8e-L c F	8ggL an	.
8e-J c F	8ffJ a	.
8dL B-	8ggL a-	.
8dJ B-	8ffJ a-	.
=75	=75	=75
*>D1	*>D1	*>D1
8e-L E-	2ee- g	.
8BB-J BBB-	.	.
8GGL GGG	.	.
8GG-J GGG-	.	.
=76:|!	=76:|!	=76:|!
*>D2	*>D2	*>D2
8e-L E-	4ee- g	.
8B-J BB-	.	.
4BB- BBB-	8bb-L b-	.
.	8bbnJ bn	.
=77!|:	=77!|:	=77!|:
*>E	*>E	*>E
8FL FF	16cccLL cc	f
.	16aa-	.
8a-J d B-	16bb-	.
.	[16cccJJ [cc	.
8BB-L	16ccc]LK cc]	.
.	8ccc# cc#	.
8a-J d B-	.	.
.	16aa-Jk	.
=78	=78	=78
8FL	16dddLL dd	.
.	16aa-	.
8a-J d B-	16bb-	.
.	[16dddJJ [dd	.
8BB-L	16ddd]LK dd]	.
.	8ggg gg	.
8a-J d B-	.	.
.	16fffJk ff	.
=79	=79	=79
8E-L	16eee-LL ee-	.
.	16gg	.
8gJ e- B-	16bb-	.
.	[16dddJJ [dd	.
8BB-L	16ddd]LK dd]	.
.	8ccc cc	.
8gJ e- B-	.	.
.	16ggJk ee-	.
=80	=80	=80
8E-L	[4bb- [b-	.
8gJ e- B-	.	.
8BB-L	16bb-]LL b-]	.
.	16bb- b-	.
8gJ e- B-	16ccc cc	.
.	16dddJJ dd	.
=81	=81	=81
8FL	16eee-LL ee-	.
.	16aa-	.
8a-J d B-	16bb-	.
.	[16dddJJ [dd	.
8BB-L	16ddd]LK dd]	.
.	8ccc cc	.
8a-J d B-	.	.
.	16ddJk	.
=82	=82	=82
8DL	[4bb- [b-	.
8a-J d B-	.	.
8BB-L	16bb-]LL b-]	.
.	16bb- b-	.
8a-J d B-	16ccc cc	.
.	16dddJJ dd	.
=83	=83	=83
8E-L	16eee-LL ee-	.
.	16gg	.
8gJ e- B-	16bb-	.
.	[16dddJJ [dd	.
8BB-L	16ddd]LK dd]	.
.	8ccc cc	.
8gJ e- B-	.	.
.	16ee-Jk	.
=84	=84	=84
8E-L	4bb- b-	.
8gJ e- B-	.	.
4BB- BBB-	8bb-L aa- b-	.
.	8bbnJ aa- bn	.
=85	=85	=85
8FL FF	16cccLL cc	.
.	16aa-	.
8a-J d B-	16bb-	.
.	[16cccJJ [cc	.
8BB-L	16ccc]LK cc]	.
.	8ccc# cc#	.
8a-J d B-	.	.
.	16aa-Jk	.
=86	=86	=86
8FL	16dddLL dd	.
.	16aa-	.
8a-J d B-	16bb-	.
.	[16dddJJ [dd	.
8BB-L	16ddd]LK dd]	.
.	8ggg gg	.
8a-J d B-	.	.
.	16fffJk ff	.
=87	=87	=87
8E-L	16eee-LL ee-	.
.	16gg	.
8gJ e- B-	16bb-	.
.	[16dddJJ [dd	.
8BB-L	16ddd]LK dd]	.
.	8ccc cc	.
8gJ e- B-	.	.
.	16ggJk ee-	.
=88	=88	=88
8E-L	16bb-LL b-	.
.	16gg ee-	.
8gJ e- B-	16ccc cc	.
.	[16bb-JJ [b-	.
8GL GG	16bb-]LL b-]	.
.	16ee-	.
8gJ e- B-	16gg	.
.	16bb-JJ b-	.
=89	=89	=89
8A-L AA-	4ccc aa- ff cc	.
8a-J f c	.	.
8FL FF	8cccL aa- ff cc	.
16GL GG	8ccc-J aa- ff cc-	.
16A-JJ AA-	.	.
=90	=90	=90
8B-L BB-	16bb-LL gg ee- b-	.
.	16gg ee-	.
8gJ e- B-	16cccn ccn	.
.	[16bb-JJ [b-	.
8CL	16bb-]LL b-]	.
.	16gg	.
8enJ c B-	16een	.
.	16ccJJ	.
=91	=91	=91
8e-L c F	8ggL an	.
8e-J c F	8ffJ a	.
8dL B-	8ggL a-	.
8dJ B-	8ffJ a-	.
=92	=92	=92
*>E1	*>E1	*>E1
8e-L E-	4ee- g	.
8B-J BB-	.	.
4BB- BBB-	8bb-L aa- b-	.
.	8bbnJ aa- bn	.
=93:|!	=93:|!	=93:|!
*>E2	*>E2	*>E2
8e-L E-	4ee- g	.
8B-J BB-	.	.
8E- EE-	8eee- bb- gg ee-	.
8r	8r	.
==	==	==
*-	*-	*-
!!!ENC: Craig Stuart Sapp
!!!END: 2004/11/28/
